public/NAS/Marketplaces/about-making-payouts.svg

<svg width="49" height="49" viewBox="0 0 49 49" fill="none" xmlns="http://www.w3.org/2000/svg">
<path d="M28.7333 40.5207C39.9262 40.5207 48.9999 31.4498 48.9999 20.2604C48.9999 9.07087 39.9262 0 28.7333 0C17.5404 0 8.4668 9.07087 8.4668 20.2604C8.4668 31.4498 17.5404 40.5207 28.7333 40.5207Z" fill="url(#paint0_linear_4557:41570)"/>
<path d="M12.1983 41.6011H5.89453L5.92653 20.8081H12.1983V41.6011ZM24.9979 20.8081H18.5981V41.6011H24.9979V20.8081V20.8081ZM37.7975 20.8081H31.3977V41.6011H37.7975V20.8081V20.8081Z" stroke="black" stroke-miterlimit="10" stroke-linecap="round" stroke-linejoin="round"/>
<path d="M41.7027 20.8098H1.89597C1.72521 20.8111 1.55852 20.7577 1.42027 20.6575C1.28202 20.5573 1.17947 20.4156 1.12762 20.2529C1.07577 20.0903 1.07735 19.9153 1.13211 19.7536C1.18687 19.5919 1.29196 19.452 1.43199 19.3543L17.7514 7.69421C18.9299 6.85152 20.3424 6.39844 21.7913 6.39844C23.2402 6.39844 24.6528 6.85152 25.8312 7.69421L42.1506 19.3543C42.8066 19.8181 42.4866 20.8098 41.7027 20.8098ZM39.3987 48.0006H4.19989C2.43995 48.0006 1 46.5611 1 44.8017C1 43.0423 2.43995 41.6028 4.19989 41.6028H39.3987C41.1587 41.6028 42.5986 43.0423 42.5986 44.8017C42.5986 46.5611 41.1587 48.0006 39.3987 48.0006Z" stroke="black" stroke-miterlimit="10" stroke-linecap="round" stroke-linejoin="round"/>
<defs>
<linearGradient id="paint0_linear_4557:41570" x1="53.0525" y1="-9.11692" x2="9.5023" y2="53.7831" gradientUnits="userSpaceOnUse">
<stop stop-color="#2BD4DB" stop-opacity="0.8"/>
<stop offset="1" stop-color="#D5F6F8" stop-opacity="0.3"/>
</linearGradient>
</defs>
</svg>

<svg width="49" height="49" fill="none" xmlns="http://www.w3.org/2000/svg">
  <path d="M28.733 40.52C39.926 40.52 49 31.45 49 20.26 49 9.07 39.926 0 28.733 0S8.467 9.07 8.467 20.26c0 11.19 9.073 20.26 20.266 20.26Z" fill="url(#a)"/>
  <path d="M12.198 41.601H5.895l.032-20.793h6.271v20.793Zm12.8-20.793h-6.4v20.793h6.4V20.808v0Zm12.8 0h-6.4v20.793h6.4V20.808v0Z" stroke="black" stroke-miterlimit="10" stroke-linecap="round" stroke-linejoin="round"/>
  <path d="M41.703 20.81H1.896a.8.8 0 0 1-.464-1.456l16.32-11.66a6.945 6.945 0 0 1 8.08 0l16.319 11.66c.656.464.336 1.456-.448 1.456ZM39.399 48h-35.2C2.44 48 1 46.562 1 44.803c0-1.76 1.44-3.2 3.2-3.2h35.199c1.76 0 3.2 1.44 3.2 3.2 0 1.76-1.44 3.199-3.2 3.199Z" stroke="black" stroke-miterlimit="10" stroke-linecap="round" stroke-linejoin="round"/>
  <defs>
    <linearGradient id="a" x1="53.053" y1="-9.117" x2="9.502" y2="53.783" gradientUnits="userSpaceOnUse">
      <stop stop-color="#2BD4DB" stop-opacity=".8"/>
      <stop offset="1" stop-color="#D5F6F8" stop-opacity=".3"/>
    </linearGradient>
  </defs>
</svg>
